X: 717
T: Zhok (Moldavian Dance)
B: German Goldenshteyn "Shpilt klezmorimlach klingen zoln di gesalach" v.3 New York 2003
M: 2/4
L: 1/16
Q: 1/4=104
K: Am
  (^GA)A2 (Bc)c2 | (BA)^GA B4 | {^G}A8- | A8 \
| (^GA)A2 (Bc)c2 | (BA)^GA e4 | {^c}d8- | d8 |
|: (^ce)d2 (df)(fe) | (ed)^ce d4 \
| (Bd)c2 (ce)(e^d) | (^dc)(cB) (^GA)Bc \
| (dc)BA ^G2A2 | B4 (dc)BA
|1 ^G2 {B}A6- | A8 \
:|2 ^G2 {B}A6- | A4 z2(^GA) \
|: (BA)^GF EEE2 | AAA2 ccc2 \
| BBB2 ddd2 | (cB)cd e2(^GA)
| (BA)^GF EEE2 | AAA2 ccc2 \
| BBB2 ddd2 |1 (cd)(Bc) A2(^GA) :|2 (cd)(Bc) A2z2 |]
